packages/core/src/svgs/dvi.svg

<svg width="24" height="24" viewBox="0 0 24 24" fill="none" xmlns="http://www.w3.org/2000/svg">
<g clip-path="url(#clip0_31_9620)">
<path d="M0 0H24V24H0V0Z" fill="url(#paint0_linear_31_9620)"/>
<path fill-rule="evenodd" clip-rule="evenodd" d="M6.86122 5.25409C6.86993 5.22129 6.8895 5.19241 6.91675 5.17217C6.94399 5.15193 6.9773 5.14153 7.01122 5.14266H10.9026L18.7798 9.71981C18.8398 9.75409 18.8655 9.82695 18.8526 9.89123H18.8569L18.8484 9.90409C18.8405 9.92337 18.8289 9.94086 18.8141 9.95552L12.8698 19.2855H8.79408L6.86979 5.35695C6.85861 5.32983 6.85563 5.30003 6.86122 5.27123L6.85693 5.25409H6.86122ZM9.12408 5.44695L9.23979 6.29123L10.9584 7.30266L10.7012 5.44695H9.12408ZM10.6241 16.4869L9.29122 6.67266L11.0141 7.68409L11.9569 14.4127L10.6284 16.4869H10.6241ZM10.6884 16.9498L10.9455 18.8269L12.2826 16.7269L12.0212 14.8755L10.6926 16.9498H10.6884ZM12.2741 14.4812L12.5312 16.3284L16.5169 10.0541H15.1155L12.2741 14.4812ZM15.1241 9.74981C15.1173 9.74495 15.1101 9.74065 15.1026 9.73695L11.2884 7.49552L11.0184 5.56266L18.2269 9.74981H15.1284H15.1241ZM14.8326 9.92981L12.2055 14.0227L11.3484 7.88123L14.8326 9.92981Z" fill="white"/>
</g>
<defs>
<linearGradient id="paint0_linear_31_9620" x1="4.46571" y1="4.16143" x2="29.2071" y2="32.58" gradientUnits="userSpaceOnUse">
<stop stop-color="#1A1E21"/>
<stop offset="1" stop-color="#06060A"/>
</linearGradient>
<clipPath id="clip0_31_9620">
<rect width="24" height="24" fill="white"/>
</clipPath>
</defs>
</svg>

<svg xmlns="http://www.w3.org/2000/svg" width="24" height="24" fill="none" viewBox="0 0 24 24"><g clip-path="url(#a)"><path fill="url(#b)" d="M0 0h24v24H0z"/><path fill="#fff" fill-rule="evenodd" d="M6.861 5.254a.15.15 0 0 1 .15-.111h3.892L18.78 9.72c.06.034.085.107.073.171h.004l-.009.013a.2.2 0 0 1-.034.052l-5.944 9.33H8.794L6.87 5.355a.15.15 0 0 1-.009-.085l-.004-.017zm2.263.193.116.844 1.718 1.012-.257-1.856zm1.5 11.04L9.291 6.673l1.723 1.011.943 6.729-1.329 2.074zm.064.463.257 1.877 1.338-2.1-.262-1.851-1.328 2.074zm1.586-2.469.257 1.847 3.986-6.274h-1.401zm2.85-4.731-.021-.013-3.815-2.241-.27-1.933 7.209 4.187h-3.103m-.291.18-2.627 4.093-.858-6.142z" clip-rule="evenodd"/></g><defs><linearGradient id="b" x1="4.466" x2="29.207" y1="4.161" y2="32.58" gradientUnits="userSpaceOnUse"><stop stop-color="#1A1E21"/><stop offset="1" stop-color="#06060A"/></linearGradient><clipPath id="a"><path fill="#fff" d="M0 0h24v24H0z"/></clipPath></defs></svg>
